X: 54
T: BLACK EYED SUSAN
B: O'Neill's 54
M: 6/8
L: 1/8
Z: 1999 by John Chambers <jc@trillian.mit.edu>
N: "Slow"
N: "Collected by F.O'Neill"
N: 2nd Setting.
N: Only 15 bars.
K:Cm
G \
| (c2d) (edc) | (=B2c) G2G | (_B2A) (AGF) | (E2F) HG2 G |
| (c2d e2)B | e2~f Hg3 | fdB B2(d/e/) | f2d e2 ||
|| B \
| (g2e) (f2d) | (edc) (=B2c) | G3- G2F | (E>FG/A/) BG zG/ |
| (c2d) (egf) | e>dc (Gc=B) | c3- c2 ||


